X: 43402
T: Xesus And Felisa
R: reel
M: 4/4
K: Bminor
FB Bc d3 f|ef/e/ de cA dc|BG GF GA B/c/d|B c2 B BA FE|
FB Bc de fa|ef ed cA A=c|BG GF GA B/c/d|Bc cB BA de|
f2 fe fa af|ef ed cA A=c|BG GF GA B/c/d|B c2 B BA ag|
f2 fe fa a2 f/|ef ed cA A=c|BG GF GA B/c/d|cB BA B/c/d ef|
gB BA B/c/d eg|(gf) (fe) (ed) d(e|e)A AB cd eg|gf f b2 a ag|
gB BA B/c/d eg|gf fe ed d(e|e)~=c3 cd cA|B8||

